icon-svg/orbi.svg

<svg xmlns="http://www.w3.org/2000/svg" viewBox="0 0 24 24"><path fill="#44739e" d="m18.962 18.419-.7-15.534c-.951.717-5.728.742-6.327.742S6.583 3.6 5.611 2.892l-.567 15.474a51 51 0 0 0 7.157.506 51 51 0 0 0 6.761-.453m-6.762.842h-.035a52 52 0 0 1-7.131-.506A3.16 3.16 0 0 0 8.193 22h7.621a3.157 3.157 0 0 0 3.152-3.192 52 52 0 0 1-6.766.453m-6.542 1.088.733-.889h.55l-.759 1.066Zm1.48.839-.524-.288.733-1.44H7.9Zm.877-.234.733-1.44H9.3l-.759 1.728Zm1.807.437L9.3 21.1l.733-1.44h.55Zm1.519 0-.524-.289.733-1.44h.55Zm1.44 0-.524-.289.733-1.44h.55Zm1.571 0-.524-.289.733-1.44h.55Zm1.527 0-.524-.289.733-1.44h.55Zm1.377-.2-.523-.288.733-1.44h.55Zm.83-18.573C17.72 2.353 15.474 2 12 2s-5.72.353-6.086.618c.365.265 2.612.618 6.086.618s5.721-.353 6.086-.618"/></svg>

<svg xmlns="http://www.w3.org/2000/svg" fill="#44739e" width="24" height="24" viewBox="0 0 24 24">
  <path id="Colore_riempimento_2" data-name="Colore riempimento 2" class="cls-1" d="M 18.962,18.419 18.262,2.885 C 17.311,3.602 12.534,3.627 11.935,3.627 11.336,3.627 6.583,3.6 5.611,2.892 L 5.044,18.366 a 51.427,51.427 0 0 0 7.157,0.506 51.428,51.428 0 0 0 6.761,-0.453 z M 12.2,19.261 H 12.165 A 51.9,51.9 0 0 1 5.034,18.755 3.161,3.161 0 0 0 8.193,22 h 7.621 A 3.157,3.157 0 0 0 18.966,18.808 51.661,51.661 0 0 1 12.2,19.261 Z M 5.658,20.349 6.391,19.46 h 0.55 L 6.182,20.526 Z M 7.138,21.188 6.614,20.9 7.347,19.46 H 7.9 Z m 0.877,-0.234 0.733,-1.44 H 9.3 L 8.541,21.242 Z M 9.822,21.391 9.3,21.1 10.033,19.66 h 0.55 z m 1.519,0 -0.524,-0.289 0.733,-1.44 h 0.55 z m 1.44,0 -0.524,-0.289 0.733,-1.44 h 0.55 z m 1.571,0 -0.524,-0.289 0.733,-1.44 h 0.55 z m 1.527,0 -0.524,-0.289 0.733,-1.44 h 0.55 z m 1.377,-0.2 -0.523,-0.288 0.733,-1.44 h 0.55 z M 18.086,2.618 C 17.72,2.353 15.474,2 12,2 8.526,2 6.28,2.353 5.914,2.618 6.279,2.883 8.526,3.236 12,3.236 c 3.474,0 5.721,-0.353 6.086,-0.618 z"/>
</svg>
